X:77
T:The Echo
R:hornpipe
M:4/4
L:1/8
K:Dmaj
dAFA D2 FA | dfec dcBc | A2 ce A2 ce | f2 ec dcBc |
dAFA D2 FA | dfec dcBA | gfgb afdf |1 eABc dgfe :|2 eABc d2 B=c ||
dg g2 bg g2| dgbg agfg | A2 ce A2 ce | f2 ec dcBc |
dg g2 bg g2 | dgbg agfa | gfgb afdf |1 eABc d2 B=c :|2 eABc d4 ||

